svgs/sharp-solid/road-circle-exclamation.svg

<svg xmlns="http://www.w3.org/2000/svg" viewBox="0 0 640 512"><!--! Font Awesome Pro 6.6.0 by @fontawesome - https://fontawesome.com License - https://fontawesome.com/license (Commercial License) Copyright 2024 Fonticons, Inc. --><path d="M160 32l128 0 0 64 0 32 64 0 0-32 0-64 128 0 46.5 162.6c-9.9-1.7-20.1-2.6-30.5-2.6c-59.5 0-112.1 29.6-144 74.8l0-42.8 0-32-64 0 0 32 0 64 0 32 38.6 0c-4.3 15.3-6.6 31.4-6.6 48c0 5.4 .2 10.7 .7 16L288 384l0 32 0 64L32 480 160 32zM496 224a144 144 0 1 1 0 288 144 144 0 1 1 0-288zm16 224l0-32-32 0 0 32 32 0zm0-176l-32 0 0 16 0 80 0 16 32 0 0-16 0-80 0-16z"/></svg>

<svg xmlns="http://www.w3.org/2000/svg" viewBox="0 0 640 512"><!--! Font Awesome Pro 6.4.0 by @fontawesome - https://fontawesome.com License - https://fontawesome.com/license (Commercial License) Copyright 2023 Fonticons, Inc. --><path d="M160 32H288V96v32h64V96 32H480l46.5 162.6c-9.9-1.7-20.1-2.6-30.5-2.6c-59.5 0-112.1 29.6-144 74.8V224 192H288v32 64 32h38.6c-4.3 15.3-6.6 31.4-6.6 48c0 5.4 .2 10.7 .7 16H288v32 64H32L160 32zM496 224a144 144 0 1 1 0 288 144 144 0 1 1 0-288zm16 224V416H480v32h32zm0-176H480v16 80 16h32V368 288 272z"/></svg>
